!!!COM: Chopin, Frederic
!!!CDT: 1810///-1849///
!!!OTL: Mazurka 50 in A Minor
!!!OMD: Allegretto
**kern	**kern	**dynam
*staff2	*staff1	*staff1/2
*clefF4	*clefG2	*clefG2
*k[]	*k[]	*k[]
*a:	*a:	*a:
*M3/4	*M3/4	*M3/4
*MM112	*MM112	*MM112
4r	(>4c 4e 4a	p
=1	=1	=1
4r	4c 4e 4a	.
4.E	4.B 4.e 4.g#	.
8E	8A 8e 8f#	.
=2	=2	=2
8.EL	8.B 8.e 8.g#L	.
16AAJk	16c 16e 16aJk	.
2E	2e 2g# 2cc	>
=3	=3	=3
8.EEL	8.d 8.e 8.bL	.
16AAJk	16c 16e 16aJk	]
4E	4B 4e 4g#	.
4EE	4A 4e 4f#	.
=4	=4	=4
[4E	8.B 8.e 8.g#L	.
.	16d 16e 16bJk	.
(8EL]	2c 2e 2a)	.
(8qGn	.	.
8Fn)	.	.
8E	.	.
8AAJ)	.	.
=5	=5	=5
!	!LO:TX:b:i:t=poco cresc.	!
4GG	4e 4gn (>4cc	.
4.G	4.d 4.g 4.b	.
8G	8c 8g 8a	.
=6	=6	=6
8.GL	8.d 8.g 8.bL	<
16CJk	16e 16g 16ccJk	.
2G	2g 2b 2ee	[[
=7	=7	=7
8.GGL	8.f 8.g 8.ddL	.
16CJk	16e 16g 16ccJk	.
.	(16qbLL	.
.	16qccJJ	.
4G	4d 4g 4b)	.
4GG	4c 4g 4a	.
=8	=8	=8
4G	8.d 8.g 8.bL	.
.	16f 16g 16ddJk	>
4C	4e 4g 4cc	.
8.DL	8.d 8.f 8.bL	.
16D#Jk	16c 16f# 16aJk	]
=9	=9	=9
2E	4c 4e 4a	p
.	4.B 4.e 4.g#	.
[4E	.	.
.	8A 8e 8f#	.
=10	=10	=10
8.EL]	8.B 8.e 8.g#L	.
16AAJk	16c 16e 16aJk	.
2E	2e 2g# 2cc	.
=11	=11	=11
8.EEL	8.d 8.e 8.bL	.
16AAJk	16c 16e 16aJk	.
.	(16qg#LL	.
.	16qaJJ	.
4E	4B 4e 4g#)	.
4EE	4A 4e 4f#	.
=12	=12	=12
[4E	8.B 8.e 8.g#L	.
.	16d 16e 16bJk	.
(8EL]	2c 2e 2a)	.
(8qGn	.	.
8Fn)	.	.
8E	.	.
8AAJ)	.	.
=13	=13	=13
4GG	4e 4gn (>4cc	p
4.G	4.d 4.g 4.b	.
8G	8c 8g 8a	<
=14	=14	=14
8.GL	8.d 8.g 8.bL	.
16CJk	16e 16g 16ccJk	.
2G	2g 2b 2ee	.
.	.	[
=15	=15	=15
8.GGL	8.f 8.g 8.ddL	.
16CJk	16e 16g 16ccJk	.
.	(16qbLL	.
.	16qccJJ	.
4G	4d 4g 4b)	.
4GG	4c 4g 4a	.
=16	=16	=16
4G	8.d 8.g 8.bL	.
.	16f 16g 16ddJk	.
4C	2e 2g 2cc)	.
[4c^<	.	.
=17	=17	=17
*	*^	*
!	!	!	!LO:HP:b=2
(8.cL]	(8.ccL	4e 4g	>
16BJk	16ccJk	.	.
12AL	4..cc	2f 2a	.
12B	.	.	.
12AJ	.	.	.
8GL	.	.	.
8FJ	.	.	.
.	16dd	.	]
=18	=18	=18	=18
8.EL	4ryy	8g 8eeL	.
.	.	16r	.
16DJk	.	16e 16g# 16eeJk	.
!LO:TUP:b	!	!	!
12CL	4a	2e 2ee	.
12D	.	.	.
12CJ	.	.	.
8BBL	8bL	.	.
8AAJ	8ccJ	.	.
*	*v	*v	*
=19	=19	=19
8.GGnL	8.e 8.b 8.eeL	.
16FF#Jk	16a 16b 16eeJk	.
4EE	4gn 4b 4ee	.
4BBB	4f# [>4b 4dd#)	.
=20	=20	=20
4EEE)	2.e 2.g# 2.b] (>2.ee	.
4EE	.	.
4E	.	.
=21	=21	=21
*	*^	*
(>8qAA	.	.	.
(8.cL)	8.aL	4e	p
16BJk	16aJk	.	.
12AL	4..f 4..a	2d [2a	.
12B	.	.	.
12AJ	.	.	.
8GnL	.	.	.
8FnJ	.	.	.
.	16b	.	.
=22	=22	=22	=22
8.EL	8.ccL	4c 4a]	.
16DJk	16ccJk	.	.
!LO:TUP:b	!	!	!
12CL	[2a [2cc	[2e	.
12D	.	.	.
12CJ	.	.	.
8BBL	.	.	.
8AAJ	.	.	.
*	*v	*v	*
=23	=23	=23
8.GGL	8.e] 8.a] 8.ccL]	.
16FFJk	16d# 16a 16ccJk	.
4EE	(4e 4a 4cc	.
4EEE	4dn [4e 4g# 4b)	.
=24	=24	=24
4AAA)	4c 4e] 4a)	.
4AA	4r	.
4A	4r	.
=25	=25	=25
*	*^	*
(>8qC	.	.	.
(<8.cL)	(8.gL	4e	.
16BJk	16ccJk	.	.
!LO:TUP:a	!	!	!
12AL	4..cc	2f 2a	.
12B	.	.	.
12AJ	.	.	.
8GL	.	.	.
8FJ	.	.	.
.	16dd	.	.
=26	=26	=26	=26
8.EL	4ryy	8g 8eeL	.
.	.	16r	.
16DJk	.	16e 16g# 16eeJk	.
!LO:TUP:b	!	!	!
12CL	4a	2e 2ee	.
12D	.	.	.
12CJ	.	.	.
8BBL	8bL	.	.
8AAJ	8ccJ	.	.
*	*v	*v	*
=27	=27	=27
8.GGnL	8.e 8.b 8.eeL	.
16FF#Jk	16a 16b 16eeJk	.
4EE	4gn 4b 4ee	.
4BBB	4f# [>4b 4dd#	.
=28	=28	=28
4EEE)	2.e 2.g# 2.b] 2.ee)	.
4EE	.	.
4E	.	.
=29	=29	=29
*	*^	*
(8qAA	.	.	.
(<8.cL)	(8.aL	4e	.
16BJk	16aJk	.	.
!LO:TUP:a	!	!	!
12AL	4..fn 4..a	2d [2a	.
12B	.	.	.
12AJ	.	.	.
8GnL	.	.	.
8FnJ	.	.	.
.	16b	.	.
=30	=30	=30	=30
8.EL	8.ccL	4c 4a]	.
16DJk	16ccJk	.	.
!LO:TUP:b	!	!	!
12CL	2ryy	[2e [>2a [2cc	.
12D	.	.	.
12CJ	.	.	.
8BBL	.	.	.
8AAJ	.	.	.
*	*v	*v	*
=31	=31	=31
8.GGL	8.e] 8.a] 8.ccL]	.
16FFJk	16d# 16a 16ccJk	.
4EE	[>4e 4a 4cc	.
4EEE	4dn 4e] 4g# 4b	.
=32	=32	=32
*^	*^	*
4rF	4AAA	2.a	4rc	.
4rF	2AA)	.	4rc	.
4E	.	.	4c# 4e	.
*v	*v	*	*	*
*	*v	*v	*
=33||	=33||	=33||
*k[f#c#g#]	*k[f#c#g#]	*k[f#c#g#]
*^	*^	*
2B	4r	2b	4r	p
.	4E	.	4d 4e 4g#	.
4d	4r	4dd	4r	.
*v	*v	*	*	*
*	*v	*v	*
=34	=34	=34
&(8c#L&)	8.cc#L	.
16r	.	.
(16AAJk	16c# 16e 16g#Jk	>
4B	4b	.
4A)	4c# 4e 4a)	.
=35	=35	=35
*^	*^	*
2d	4r	(2dd	4r	.
.	4D 4A	.	4f# 4a	.
4f#	4r	4ff#	4r	.
*v	*v	*	*	*
=36	=36	=36	=36
2.r	8.ff#L	8.f#L	.
.	16a 16cc# 16dd#Jk	16A 16d#Jk	.
.	4ff#	4f#	>
.	4a 4cc# 4ee)	4e	.
=37	=37	=37	=37
2.r	(8.ff#L	8.f#L	.
.	16g# 16ddnJk 16dd#	16EJk	.
.	4ff#	4f#	.
.	4g# 4ddn 4ee	4e	.
=38	=38	=38	=38
2.r	8aaL)	8aL	.
.	16r	16r	.
.	16a 16cc# (16dd#Jk	16d#Jk	.
.	4ff#	4f#	.
.	4a 4cc# 4ee)	4e	.
*	*v	*v	*
=39	=39	=39
8.c#L	(8.cc#L	.
16BBJk	16d# 16anJk 16a#	.
4c#	4cc#	.
&(4B&)	4d# 4an 4b	.
=40	=40	=40
8.c#L	8.cc#L	.
16E (16A#Jk	16e 16g# 16a#Jk	.
4c#	4cc#	.
4B)	4e 4g# 4b)	.
=41	=41	=41
*^	*^	*
2B	4r	(2b	4r	.
.	4BB 4F#	.	4dn 4f#	.
4d	4r	4dd	4r	.
*v	*v	*	*	*
*	*v	*v	*
=42	=42	=42
&(8.c#L&)	8.cc#L	.
(16FF#Jk	16c# 16f# 16g#Jk	.
4B	4b	.
4A)	4c# 4f# 4a)	.
=43	=43	=43
*^	*^	*
2d	4r	(2dd	4r	.
.	4D 4A	.	4f# 4a	.
4f#	4r	4ff#	4r	.
*v	*v	*	*	*
=44	=44	=44	=44
2.r	8.ff#L	8.f#L	.
.	16a 16cc# 16dd#Jk	16A 16d#Jk	.
.	4ff#	4f#	.
.	4a 4cc# 4ee)	4e	.
=45	=45	=45	=45
2.r	(8.ff#L	8.f#L	.
.	16g# 16ddnJk 16dd#	16EJk	.
.	4ff#	4f#	.
.	4g# 4ddn 4ee	4e	.
=46	=46	=46	=46
2.r	8ccc#L)	8cc#L	.
.	16r	16r	.
.	16a 16cc# 16dd#Jk	(16d#Jk	.
.	4ff#	4f#	.
.	4a 4cc# &(4ee&)	4e)	.
*	*v	*v	*
=47	=47	=47
8.dnL	(8.ddnL	.
16c#Jk	16e 16a 16cc#Jk	.
4d	4dd	.
&(4c#&)	4e 4a 4cc#	.
=48	=48	=48
(8.BL	8.bL	.
16AJk	16c# 16e 16aJk	.
4B	4b	.
4A)	4c# 4e 4a)	.
=49	=49	=49
*^	*^	*
2G#	4r	(2g#	4r	p
.	4C#	.	4c# 4e	.
4c#	4r	4cc#	4r	.
*v	*v	*	*	*
*	*v	*v	*
=50	=50	=50
8B#L	8.b#L	.
16r	.	.
(16GG#Jk	16B# 16f# 16g#Jk	.
4A	4a	.
4G#)	4B# 4f# 4g#)	.
=51	=51	=51
*^	*^	*
2G#	4r	2g#	4r	.
.	4C#	.	4c# 4e	.
4c#	4r	4cc#	4r	.
*v	*v	*	*	*
*	*v	*v	*
=52	=52	=52
8.BnL	8.bnL	.
(16GG#Jk	16Bn 16e# 16g#Jk	.
4A	4a	.
4G#)	4B 4d 4g#	.
=53	=53	=53
*^	*^	*
2E	4r	(2e	4r	.
.	4AA	.	4A 4c#	.
4A	4r	4a	4r	.
*v	*v	*	*	*
*	*v	*v	*
=54	=54	=54
8.G#L	8g#L	.
.	16r	.
(16EEJk	16G# 16B 16eJk	.
4F#	4f#	.
4E)	4G# 4B 4e)	.
=55	=55	=55
8.G#L	(8.g#L	.
16FF#Jk	16A# 16e 16f#Jk	.
4G#	4g#	.
&(4F#&)	4A# 4e 4f#	.
=56	=56	=56
8.G#L	8.g#L	.
(16BB 16F#Jk	16B 16d# 16f#Jk	.
4G#	4g#	.
4F#)	4B 4d# 4f#)	.
=57	=57	=57
*	*^	*
8.FF#L	(2a	2.A 2.c#	p
16GG#Jk	.	.	.
4FF#	.	.	.
4AA	4f#	.	.
*	*v	*v	*
=58	=58	=58
*^	*	*
2.G# 2.c#	8.C#L	8.eL	.
.	16D#Jk	16d#Jk	.
.	4C#	4e	.
.	&(4E&)	4c#)	.
=59	=59	=59	=59
2.A 2.c#	8FF#L	(2a	.
.	8GG#	.	.
.	8FF#	.	.
.	8GG#	.	.
.	8AA	8g#L	.
.	8BBJ	8f#J	.
=60	=60	=60	=60
2.G# 2.c#	8.C#L	8.eL	.
.	16D#Jk	16d#Jk	.
.	4C#	4e	.
.	&(4E&)	4c#)	.
*v	*v	*	*
=61	=61	=61
*	*^	*
4BB	4d# (4f#	[2.B	.
4.E	4.e 4.g#	.	.
8F#	8d# 8a	.	.
=62	=62	=62	=62
8.EL	8.e 8.g#L	8B]	>
.	.	8r	.
16cnJk	16d# 16f#Jk	.	.
4B	4e 4g#	4r	.
&(4F#&)	4d# 4a)	4r	.
*	*v	*v	*
=63	=63	=63
8.EL	8.e (8.g#L	.
16cnJk	16d# 16f#Jk	.
4B	4e 4g#	.
4F#	4d# 4a	.
=64	=64	=64
8.EL	8.e 8.g#L	.
16cnJk	16d# 16f#Jk	.
4B	4e 4g#	.
4F#	4d# 4a	.
=65	=65	=65
*^	*^	*
4r	2.E	2b	4r	.
4B	.	.	4d 4e 4g#	.
4dn	.	4ddn	4r	.
*v	*v	*	*	*
*	*v	*v	*
=66	=66	=66
&(8c#L&)	8.cc#L	.
16r	.	.
16AAJk	16c# 16e 16g#Jk	.
4B	4b	>
4A	4c# 4e 4a)	.
=67	=67	=67
*^	*^	*
2d	4r	(2dd	4r	.
.	4D 4A	.	4f# 4a	.
&(4f#&)	4r	4ff#	4r	.
*v	*v	*	*	*
=68	=68	=68	=68
2.r	8.ff#L	8.f#L	.
.	16a 16cc# 16dd#Jk	16A 16d#Jk	.
.	4ff#	4f#	>
.	4a 4cc# 4ee	4e	.
=69	=69	=69	=69
2.r	8.ff#L	8.f#L	.
.	16g# 16ddnJk 16dd#	16EJk	.
.	4ff#	4f#	.
.	4g# 4ddn 4ee	4e	.
=70	=70	=70	=70
2.r	8aaL)	8aL	.
.	16r	16r	.
.	16a 16cc# (16dd#Jk	16d#Jk	.
.	4ff#	4f#	.
.	4a 4cc# 4ee	4e	.
*	*v	*v	*
=71	=71	=71
8.c#L	8.cc#L	.
16BBJk	16d 16anJk 16a#	.
4c#	4cc#	.
&(4B&)	4d 4an 4b	.
=72	=72	=72
8.c#L	8.cc#L	.
16E 16A#Jk	16e 16g# 16a#Jk	.
4c#	4cc#	.
&(4B&)	4e 4g# 4b	.
=73	=73	=73
*^	*^	*
2B	4r	2b	4r	.
.	4BB 4F#	.	4dn 4f#	.
4dn	4r	4ddn	4r	.
*v	*v	*	*	*
*	*v	*v	*
=74	=74	=74
8.c#L	8.cc#L	.
(16FF#Jk	16c# 16f# 16g#Jk	.
4B	4b	.
4A)	4c# 4f# 4a)	.
=75	=75	=75
*^	*^	*
2d	4r	(2dd	4r	.
.	4D 4A	.	4f# 4a	.
4f#	4r	4ff#	4r	.
*v	*v	*	*	*
=76	=76	=76	=76
2.r	8.ff#L	8.f#L	.
.	16a 16cc# 16dd#Jk	16A 16d#Jk	.
.	4ff#	4f#	.
.	4a 4cc# 4ee	4e	.
=77	=77	=77	=77
2.r	8.ff#L	8.f#L	.
.	16g# 16ddnJk 16dd#	16EJk	.
.	4ff#	4f#	.
.	4g# 4ddn 4ee	4e	.
=78	=78	=78	=78
2.r	8ccc#L	8cc#L	.
.	16r	16r	.
.	16a 16cc# 16dd#Jk	16d#Jk	.
.	4ff#	4f#	.
.	4a 4cc# 4ee	&(4e&)	.
*	*v	*v	*
=79	=79	=79
4c#	8.ddnL	.
.	16e 16a 16cc#Jk	.
4d	4dd	.
4c#	4e 4a 4cc#	.
=80	=80	=80
8.BL	8.bL	.
16AJk	16c# 16e 16aJk	.
4B	4b	.
4A	4c# 4e 4a)	.
=81	=81	=81
*k[]	*k[]	*k[]
4E	2B 2e (2g#	p
[2E	.	.
.	4A 4e 4f#	.
=82	=82	=82
8.EL]	8.B 8.e 8.g#L	<
16AAJk	16c 16e 16aJk	.
2E	2e 2g# 2cc	.
=83	=83	=83
8.EEL	8.d 8.e 8.bL	.
16AAJk	16c 16e 16aJk	.
4E	4B 4e 4g#	.
4EE	4A 4e 4f#	.
=84	=84	=84
[4E	8.B 8.e 8.g#L	.
.	16d 16e 16bJk	.
8EL]	2c 2e 2a)	.
(8Fn	.	.
8E	.	.
8AAJ)	.	.
=85	=85	=85
4GG	4e 4gn (4cc	.
4.G	4.d 4.g 4.b	.
8G	8c 8g 8a	.
=86	=86	=86
8.GL	8.d 8.g 8.bL	<
16CJk	16e 16g 16ccJk	.
2G	2g 2b 2ee	.
=87	=87	=87
8.GGL	8.f 8.g 8.ddL	.
16CJk	16e 16g 16ccJk	.
4G	4d 4g 4b	.
4GG	4c 4g 4a	.
=88	=88	=88
4G	8.d 8.g 8.bL	.
.	16f 16g 16ddJk	.
4C	4e 4g 4cc	.
8.DL	8.d 8.f 8.bL	.
16D#Jk	16c 16f# 16aJk	.
=89	=89	=89
2E	4c 4e 4a	.
.	4.B 4.e 4.g#	.
[4E	.	.
.	8A 8e 8f#	.
=90	=90	=90
8.EL]	8.B 8.e 8.g#L	.
16AAJk	16c 16e 16aJk	.
2E	2e 2g# 2cc	.
=91	=91	=91
8.EEL	8.d 8.e 8.bL	.
16AAJk	16c 16e 16aJk	.
4E	4B 4e 4g#	.
4EE	4A 4e 4f#	.
=92	=92	=92
[4E	8.B 8.e 8.g#L	.
.	16d 16e 16bJk	.
8EL]	2c 2e 2a)	.
(8Fn	.	.
8E)	.	.
8AAJ	.	.
=93	=93	=93
4GG	4e 4gn (4cc	.
4.G	4.d 4.g 4.b	.
8G	8c 8g 8a	.
=94	=94	=94
8.GL	8.d 8.g 8.bL	.
16CJk	16e 16g 16ccJk	.
2G	2g 2b 2ee	.
=95	=95	=95
8.GGL	8.f 8.g 8.ddL	.
16CJk	16e 16g 16ccJk	.
4G	4d 4g 4b	.
4GG	4c 4g 4a	.
=96	=96	=96
4G	8.d 8.g 8.bL	.
.	16f 16g 16ddJk	.
4C	2e 2g 2cc)	>
([4c^	.	.
=97	=97	=97
*	*^	*
8.cL]	8.ccL	4e 4g	.
16BJk	16ccJk	.	.
12AL	4..cc	2f 2a	.
12B	.	.	.
12AJ	.	.	.
8GL	.	.	.
8FJ	.	.	.
.	16dd	.	.
=98	=98	=98	=98
8.EL	4r	8g 8eeL	.
.	.	16r	.
16DJk	.	16e 16g# 16eeJk	.
12CL	4a	2e 2ee	.
12D	.	.	.
12CJ	.	.	.
8BBL	8bL	.	.
8AAJ	8ccJ	.	.
*	*v	*v	*
=99	=99	=99
8.GGnL	8.e 8.b 8.eeL	.
16FF#Jk	16a 16b 16eeJk	.
4EE	4gn 4b 4ee	.
4BBB	4f# [4b 4dd#	.
=100	=100	=100
4EEE)	2.e 2.g# 2.b] &(2.ee&)	.
4EE	.	.
4E	.	.
=101	=101	=101
*	*^	*
8.cL	8.aL	4e	.
16BJk	16aJk	.	.
12AL	4..fn 4..a	2d 2a	.
12B	.	.	.
12AJ	.	.	.
8GnL	.	.	.
8FnJ	.	.	.
.	16b	.	.
=102	=102	=102	=102
8.EL	8.ccL	4c 4a	.
16DJk	16ccJk	.	.
12CL	[2e [2a [2cc	2r	.
12D	.	.	.
12CJ	.	.	.
8BBL	.	.	.
8AAJ	.	.	.
*	*v	*v	*
=103	=103	=103
8.GGL	8.e] 8.a] 8.ccL]	.
16FFJk	16d# 16a 16ccJk	.
4EE	[4e 4a 4cc	.
4EEE	4dn 4e] 4g# 4b	.
=104	=104	=104
4AAA	4c 4e 4a	.
4AA	4r	.
4A	4r	.
=105	=105	=105
*	*^	*
8.cL	(8.gL	4e 4g	.
16BJk	16ccJk	.	.
12AL	4..cc	2f 2a	.
12B	.	.	.
12AJ	.	.	.
8GL	.	.	.
8FJ	.	.	.
.	16dd	.	.
=106	=106	=106	=106
8.EL	4r	8g 8eeL	.
.	.	16r	.
16DJk	.	16e 16g# 16eeJk	.
12CL	4a	2e 2ee	.
12D	.	.	.
12CJ	.	.	.
8BBL	8bL	.	.
8AAJ	8ccJ	.	.
*	*v	*v	*
=107	=107	=107
8.GGnL	8.e 8.b 8.eeL	.
16FF#Jk	16a 16b 16eeJk	.
4EE	4gn 4b 4ee	.
4BBB	4f# [4b 4dd#	.
=108	=108	=108
4EEE	2.e 2.g# 2.b] 2.ee)	.
4EE	.	.
4E	.	.
=109	=109	=109
*	*^	*
(>8qAA	.	.	.
(>8.cL)	(8.aL	4e	.
16BJk	16aJk	.	.
12AL	4..fn 4..a	2d 2a	.
12B	.	.	.
12AJ	.	.	.
8GnL	.	.	.
8FnJ	.	.	.
.	16b	.	.
=110	=110	=110	=110
8.EL	8.ccL	4c 4a	.
16DJk	16ccJk	.	.
!LO:TUP:b	!	!	!
12CL	[<2e [<2a [<2cc	2ryy	.
12D	.	.	.
12CJ	.	.	.
8BBL	.	.	.
8AAJ	.	.	.
*	*v	*v	*
=111	=111	=111
8.GGL	8.e] 8.a] 8.ccL]	.
16FFJk	16d# 16a 16ccJk	.
4EE	[>4e 4a 4cc	.
4EEE	4dn 4e] 4g# 4b	.
=112	=112	=112
*	*^	*
4AAA)	2.a;)	4r	.
2AA; 2E;	.	2c; 2e;	.
*	*v	*v	*
==	==	==
*-	*-	*-
!!!SMS: Mikuli edition, G. Schirmer (1894-1898)
!!!ENC: Craig Stuart Sapp
!!!END: 2005/03/12/
!!!RDF**kern: > = above
!!!RDF**kern: < = below
